svgs/unofficial/kilominx.svg

<svg enable-background="new 0 0 500 500" height="500" viewBox="0 0 500 500" width="500" xmlns="http://www.w3.org/2000/svg"><path d="m250 70-86.8 63.3 86.8 116.7 86.8-116.7z"/><path d="m60 208 33 102.5 139-48.5-85.2-117.3z"/><path d="m132 432h108v-152.5l-141 50z"/><path d="m368 432 33-102.5-141-50v152.5z"/><path d="m440 208-86.8-63.3-85.2 117.3 139 48.5z"/></svg>

<?xml version="1.0" encoding="utf-8"?>
<!DOCTYPE svg PUBLIC "-//W3C//DTD SVG 1.1//EN" "http://www.w3.org/Graphics/SVG/1.1/DTD/svg11.dtd">
<svg version="1.1" id="Layer_1" xmlns="http://www.w3.org/2000/svg" xmlns:xlink="http://www.w3.org/1999/xlink" x="0px" y="0px"
	 width="500px" height="500px" viewBox="0 0 500 500" enable-background="new 0 0 500 500" xml:space="preserve">
<path fill="#000000" d="M 250 70 L 163.2 133.3 L 250 250 L 336.8 133.3 z"/>
<path fill="#000000" d="M 60 208 L 93 310.5 L 232, 262 L 146.8 144.7 z"/>
<path fill="#000000" d="M 132 432 L 240 432 L 240 279.5 L 99 329.5 z"/>
<path fill="#000000" d="M 368 432 L 401 329.5 L 260 279.5 L 260 432 z"/>
<path fill="#000000" d="M 440 208 L 353.2 144.7 L 268 262 L 407 310.5 z"/>
</svg>
